X:52
T:Congress Reel
R:Reel
M:4/4
L:1/8
K:G
 Bd|:eAAG A2 Bd|eaaf gedg|eA ~A2 eA ~A2 |BG G2 GABd|
 |eAAG A2 Bd|eaaf gedB|cBcd eged| cABG A2 Bd:|
 |:eaag a2 ag|eaaf gedg|egdg egdg|eaaf gedg|
 |eaag a2 ag|eaaf gedB|cBcd eged|cABG A2 Bd:|
